icons/svg/comment-multipe-outline.svg

﻿<?xml version="1.0" encoding="utf-8"?>
<!DOCTYPE svg PUBLIC "-//W3C//DTD SVG 1.1//EN" "http://www.w3.org/Graphics/SVG/1.1/DTD/svg11.dtd">
<svg xmlns="http://www.w3.org/2000/svg" xmlns:xlink="http://www.w3.org/1999/xlink" version="1.1" baseProfile="full" width="24" height="24" viewBox="0 0 24.00 24.00" enable-background="new 0 0 24.00 24.00" xml:space="preserve">
	<path fill="#000000" fill-opacity="1" stroke-width="0.2" stroke-linejoin="round" d="M 12.0006,23C 11.4483,23 11.0006,22.5523 11.0006,22L 11.0006,19L 7.00063,19C 5.89606,19 5.00063,18.1046 5.00063,17L 5.01003,6.99809C 5.01003,5.89309 5.89601,4.9981 7.00001,4.9981L 21,4.9981C 22.104,4.9981 23,5.89309 23,6.99809L 23,16.9981C 23,18.1021 22.104,18.9981 21,18.9981L 16.9046,18.9997L 13.1986,22.7058C 13.0059,22.8984 12.7543,22.996 12.5019,22.9986L 12.5006,23L 12.0006,23 Z M 13.0006,17L 13.0006,20.0753L 16.0759,17L 21.0006,17L 21.0006,7.00004L 7.00062,7.00004L 7.00062,17L 13.0006,17 Z M 3,15L 0.999999,15L 1.00001,3C 1.00001,1.90001 1.90001,1.00001 3.00001,1.00001L 19,1.00001L 19,3L 3.00001,3L 3,15 Z "/>
</svg>

<svg xmlns="http://www.w3.org/2000/svg" version="1.1" baseProfile="full" width="24" height="24" viewBox="0 0 24.00 24.00" xml:space="preserve"><path fill="#000" fill-opacity="1" stroke-width=".2" stroke-linejoin="round" d="M12 23c-.552 0-1-.448-1-1v-3H7c-1.104 0-2-.895-2-2l.01-10.002c0-1.105.886-2 1.99-2h14c1.104 0 2 .895 2 2v10c0 1.104-.896 2-2 2L16.905 19 13.2 22.706c-.194.192-.446.29-.698.293H12zm1-6v3.075L16.077 17H21V7H7v10h6zM3 15H1V3c0-1.1.9-2 2-2h16v2H3v12z"/></svg>
